X:77
T:Duke of Perth
R:Reel
M:4/4
L:1/4
K:G
B |: G/A/B/c/ dB | gB dB | gB dB | aA A/c/B/A/ |
  |  G/A/B/c/ dB | gB dB | cA d>c |1 BG GB:|2 BG Gf|
  |: g>a ge | a>b af | g>a ge | be ef |
  |  g>a ge | a>b af | gd ed/c/ |1 BG Gf :|2 BG GB|
